X:10
T:Sept Sauts
O:B?arn
D:"Sauts biarn?s de l'arrib?ra"
Z:Dave Holland <dave@biff.org.uk>
M:2/4
L:1/8
P:Intro AB1 AB2 AB3 ... AB7
Q:c/4=90
K:G
P:Intro
d2g2 \
P:A
|:"G"dd/c/ BB|"D"A/B/c/A/ "G"BG|"G"dd/c/ BB|"D"A/B/c/A/ "G"G2:|
P:B
|:"Am"AA/A/ "D"AA|d/c/B/A/ "G"BG|"Am"AA/A/ "D"AA|d/c/B/A/ "G"G2:|
[|]1"G"d2g2||2"G"d2B2|d2g2||3"G"d2B2|d2B2|d2g2||4"G"d2B2|d2B2|d2B2|d2g2||5 \
"G"d2B2|d2B2|d2B2|
d2B2|d2g2||6"G"d2B2|d2B2|d2B2|d2B2|d2B2|d2g2||7"G"d2B2|d2B2|d2B2|d2B2|d2B2|d2B2|d2g2|]
<end>
<start>
